X:1301
T:Polska
T:(SvL Skåne 1301)
T:efter Ola Persson
S:efter Ola Persson
R:Polska
O:Hörr, Tolånga, Skåne
B:Svenska Låtar Skåne
N:Variant till SvL Skåne nr 1248.
N:Se även +
M:3/4
L:1/8
K:F
|: f2 fc f>a | a>g (a/g/)f/g/ a2 | f2 fc f>a | g>e g2 f2 :|
|: a2 a>f d2 | g2 g>e c2 | d2 d>B A>B | c>d c>B A2 | F>A ce f>a | g>e g2 f2 :|

